icon-themes/sifr_svg/cmd/lc_freezepanesfirstcolumn.svg

<svg viewBox="0 0 24 24" xmlns="http://www.w3.org/2000/svg"><g fill="#555753"><path d="m4 5v15h5v-12-3z" opacity=".35"/><path d="m2 3v19h20v-19zm2 2h5v3h-5zm7 0h4v3h-4zm5 0h4v3h-4zm-12 4h5v3h-5zm7 0h4v3h-4zm5 0h4v3h-4zm-12 4h5v3h-5zm7 0h4v3h-4zm5 0h4v3h-4zm-12 4h5v3h-5zm7 0h4v3h-4zm5 0h4v3h-4z"/></g></svg>

<svg viewBox="0 0 24 24" xmlns="http://www.w3.org/2000/svg">
  <path
     style="opacity:0.35;fill:#555753"
     d="M 4 5 L 4 20 L 9 20 L 9 8 L 9 5 L 4 5 z "
     />
  <path
     style="fill:#555753"
     d="M 2,3 V 22 H 22 V 3 Z M 4,5 H 9 V 8 H 4 Z m 7,0 h 4 v 3 h -4 z m 5,0 h 4 V 8 H 16 Z M 4,9 h 5 v 3 H 4 Z m 7,0 h 4 v 3 h -4 z m 5,0 h 4 v 3 H 16 Z M 4,13 h 5 v 3 H 4 Z m 7,0 h 4 v 3 h -4 z m 5,0 h 4 v 3 H 16 Z M 4,17 h 5 v 3 H 4 Z m 7,0 h 4 v 3 h -4 z m 5,0 h 4 v 3 h -4 z"
     />
</svg>
